src/img/friends.svg

<svg width="38" height="38" viewBox="0 0 38 38" fill="none" xmlns="http://www.w3.org/2000/svg">
<path d="M13.0852 0C8.21479 0 4.25525 3.95954 4.25525 8.82996C4.25525 13.6074 7.99172 17.474 12.8621 17.6413C13.0109 17.6227 13.1596 17.6227 13.2711 17.6413H13.3641H13.4012C18.1601 17.474 21.8966 13.6074 21.9152 8.82996C21.9152 3.95954 17.9556 0 13.0852 0Z" fill="white"/>
<path d="M22.5303 22.5841C17.3438 19.1264 8.88573 19.1264 3.66211 22.5841C1.30126 24.1642 0 26.3019 0 28.5884C0 30.8749 1.30126 32.9941 3.64352 34.5556C6.24604 36.303 9.66648 37.1767 13.0869 37.1767C16.5073 37.1767 19.9278 36.303 22.5303 34.5556C24.8725 32.9755 26.1738 30.8563 26.1738 28.5513C26.1552 26.2648 24.8725 24.1456 22.5303 22.5841Z" fill="white"/>
<path d="M33.5138 9.92327C33.8112 13.5296 31.2459 16.6897 27.6953 17.1173C27.6767 17.1173 27.6767 17.1173 27.6582 17.1173H27.6024C27.4909 17.1173 27.3793 17.1173 27.2864 17.1544C25.4832 17.2474 23.8287 16.6711 22.5833 15.6115C24.498 13.9014 25.5947 11.3361 25.3717 8.54765C25.2415 7.04191 24.721 5.6663 23.9403 4.49517C24.6467 4.14197 25.4646 3.9189 26.3011 3.84454C29.9447 3.52852 33.1978 6.24257 33.5138 9.92327Z" fill="white"/>
<path d="M37.2297 27.1227C37.081 28.9258 35.9284 30.4873 33.9951 31.5469C32.1362 32.5693 29.7939 33.0527 27.4702 32.9969C28.8087 31.7886 29.5894 30.2829 29.7381 28.6842C29.924 26.3791 28.8273 24.1669 26.6337 22.401C25.3882 21.4157 23.9383 20.635 22.3582 20.0587C26.4664 18.869 31.6343 19.6683 34.813 22.2336C36.5233 23.6093 37.397 25.3381 37.2297 27.1227Z" fill="white"/>
</svg>

<svg width="38" height="38" fill="none" xmlns="http://www.w3.org/2000/svg"><path d="M13.085 0c-4.87 0-8.83 3.96-8.83 8.83 0 4.777 3.737 8.644 8.607 8.811.149-.018.298-.018.41 0h.129c4.76-.167 8.496-4.034 8.514-8.811 0-4.87-3.96-8.83-8.83-8.83ZM22.53 22.584c-5.186-3.458-13.644-3.458-18.868 0C1.302 24.164 0 26.302 0 28.588c0 2.287 1.301 4.406 3.644 5.968 2.602 1.747 6.022 2.62 9.443 2.62 3.42 0 6.84-.873 9.443-2.62 2.342-1.58 3.644-3.7 3.644-6.005-.019-2.286-1.302-4.405-3.644-5.967ZM33.514 9.923c.297 3.607-2.268 6.767-5.819 7.194h-.093c-.111 0-.223 0-.316.037-1.803.093-3.457-.483-4.703-1.543 1.915-1.71 3.012-4.275 2.789-7.063a8.628 8.628 0 0 0-1.432-4.053 6.644 6.644 0 0 1 2.361-.65c3.644-.316 6.897 2.398 7.213 6.078Z" fill="#fff"/><path d="M37.23 27.123c-.149 1.803-1.302 3.364-3.235 4.424-1.859 1.022-4.201 1.506-6.525 1.45 1.339-1.208 2.12-2.714 2.268-4.313.186-2.305-.91-4.517-3.104-6.283-1.246-.985-2.696-1.766-4.276-2.342 4.108-1.19 9.276-.39 12.455 2.175 1.71 1.375 2.584 3.104 2.417 4.889Z" fill="#fff"/></svg>
